X:1
T:The Midnight Whirl
T:The Midnight Whirl 1909
T:Malvin M Franklin and Anatol Friedland Transcribed by Seán Ryan 
T:1909 Public Domain
T:1909 Public Domain
T:1909 Public Domain
T:1909 Public Domain
C:Malvin M Franklin and Anatol Friedland
Z:1909 Public Domain
%%score { ( 1 3 ) | ( 2 4 ) }
L:1/8
Q:1/4=131
M:2/4
K:G
V:1 treble nm="Piano" snm="Pno."
V:3 treble 
V:2 bass 
V:4 bass 
V:1
 dB/c/ d/e/d/B/ | ^cA/B/ c/d/c/A/ | =cA/B/ c/d/c/A/ | [GB]2 [CG][^CA] | [DB]d/[DB]/- [DB]/d/[DB] | %5
 [CFA]d/[CFA]/- [CFA]/d/[CFA] | G4- | [B,DG] z [GBg](3d/e/f/ || [Bg]g/b/ [Bf]f/b/ | %9
 e/be/ [Bd](3d/e/f/ | g/f/g/a/ b/d'b/ | [ee']3 (3d/e/f/ | [Bg]g/b/ [Bf]f/b/ | e/be/ [Bd](3d/e/f/ | %14
 g/f/g/a/ b/d'b/ | [ee']3!mp! (3e/f/^g/ |"_L.H." aa/c'/ [e^g][eg]/b/ | a/b/a/g/ e(3e/f/^g/ | %18
 aa/c'/ [e^g][eg]/b/ | a/b/a/g/ eb | a/!<(!^g/a/b/ a/=g/e!<)! |!mf! A/^G/A/B/ A/=G/E | z4 | %23
 z2 [DFAd](3d/e/f/ | [Bg]g/b/ [Bf]f/b/ | e/be/ [Bd](3d/e/f/ | g/f/g/a/ b/d'b/ | [ee']3 (3d/e/f/ | %28
 [Bg]g/b/ [Bf]f/b/ | e/be/ [Bd](3d/e/f/ | g/f/g/a/ b/d'b/ | [ee']3!mp! (3e/f/^g/ | %32
"_L.H." aa/c'/ [e^g][eg]/b/ | a/b/a/g/ e(3e/f/^g/ | aa/c'/ [e^g][eg]/b/ | a/b/a/g/ e!f!e | %36
 [G=Bd] [GBe]2 [GBd] | B2 A2 | G4- | [B,DG] z [GBdg] z |: .[B,E].^D/.E/- E/.D/.E | %41
 [G,G][B,E] [A,A][CE] | [B,B][^A,^A]/[B,B]/- [B,B]/[A,A]/[B,B] | [GBe]4 | z ^A/B/- B/A/B | G2 A2 | %46
 B4- | B4 | z c/B/ c/B/c | [Dd][GB] [B,B][^DA] |1 GF/G/- G/F/G | F2 G2 | z G/F/ G/F/G | %53
 [^CE]2 [CA]2 | z F E_E | D^D EF :|2 z ^D/E/- E/D/E | G[C_E] A[CE] | [DGB]4 | [CFA]4 | G4 | %61
 G z [GBdg](3d/e/f/ ||!f! [Bg]g/b/ [Bf]f/b/ | e/be/ [Bd](3d/e/f/ | g/f/g/a/ b/d'b/ | %65
 [ee']3 (3d/e/f/ | [Bg]g/b/ [Bf]f/b/ | e/be/ [Bd](3d/e/f/ | g/f/g/a/ b/d'b/ | %69
 [ee']3!mp! (3e/f/^g/ |"_L.H." aa/c'/ [e^g][eg]/b/ | a/b/a/g/ e(3e/f/^g/ | aa/c'/ [e^g][eg]/b/ | %73
 a/b/a/g/ e!f!e | [G=Bd] [GBe]2 [GBd] | B2 A2 | G4- | [B,DG] z [GBdg] z || %78
[K:C]!mf! [EGc]2 [EGd][EGe]- | [EGe][EGd] [EGc]2 | B4 | [=DE^G]4 | [=FA]2 [FB][Fc]- | %83
 [Fc][FB] [FA]2 |[K:C] G4 | [CE]4 | [DF]2 [FG][FA]- | [FA][FG] [=B,F]2 | E4 | [Ac]4 | %90
 [^FA]2 [FB][Fc]- | [Fc][^FB] [FA]2 | G4 | G4 |!f! [EGc]2 [EGd][EGe]- | [EGe][EGd] [EGc]2 | B4 | %97
 [=DE^G]4 | [=FA]2 [FB][Fc]- | [Fc][FB] [FA]2 | G4 | [CE]4 | [DF]2 [FG][FA]- | [FA][FG] [=B,F]2 | %104
!ff! E4 | [Ac]4 | [^FA]2 [Fc][Fd]- | [Fd][=FB] [FG]2 | c4- | [CEc] z [CEGc] z || %110
"_L.H."!f! ge/^f/ g/a/g/e/ | ^fc'/f/- f/c'/f | =fd/e/ f/g/f/d/ | ec'/e/- e/c'/e | GA/B/- B/A/G | %115
 Bc/d/- d/c/B |!ff! [Gg][Bfb] [Afa][_Af_a] | g^g/a/- a/_b/=b |[Q:1/4=134] [egc']2 [egd'][ege']- | %119
 [ege'][egd'] [egc']2 | [Bb]4 | [^Gde^g]4 | [Afa]2 [Bfb][cfc']- | [cfc'][Bfb] [Afa]2 | [Gg]4 | %125
 [EGe]4 | [Fdf]2 [Gdg][Afa]- | [Afa][Gfg] [FBf]2 | [Ee]4 | [cc']4 | [A^fa]2 [Bfb][cfc']- | %131
 [cfc'][B^fb] [Afa]2 | g4- | g4 |!ff! [cegc']2 [egd'][ege']- | [ege'][egd'] [cegc']2 | [Bb]4 | %137
 [^Gde^g]4 | [Afa]2 [Bfb][cfc']- | [cfc'][Bfb] [Afa]2 | [Gg]4 | [EGe]4 | [Fdf]2 [Gdg][Afa]- | %143
 [Afa][Gfg] [FBf]2 | [Ee]4 | [Acc']4 | [^fa]2 [fac'][fd']- | [fd'][=fb] [fg]2 | [cc']4 | %149
 [CEc] z [cegc'] z |] %150
V:2
!f! [=F,=F][F,F] [F,F][F,F] | [E,E][E,E] [E,E][E,E] | [_E,_E][E,E] [E,E][E,E] | %3
 [D,D]2 [E,,E,][_E,,_E,] | [D,,D,][D,G,B,] [D,,D,][D,G,B,] | D,,[D,F,] D,,[D,F,] | G,,4- | %7
 [G,,D,] z [G,,G,] z || G,,[D,G,B,] F,,[D,G,B,] | E,,[D,G,B,] D,,[D,G,B,] | %10
 G,,[D,G,B,] [B,,B,][G,,G,] | [E,,E,][E,G,B,] [E,G,B,] z | G,,[D,G,B,] F,,[D,G,B,] | %13
 E,,[D,G,B,] D,,[D,G,B,] | G,,[D,G,B,] [B,,B,][G,,G,] | [E,,E,][E,G,B,] [E,G,B,] z | z4 | z4 | z4 | %19
 z4 |[K:treble] [GA^c]4 |[K:bass] [G,A,^C]4 | %22
!f! [A,,A,]/[^G,,^G,]/[A,,A,]/[B,,B,]/ [A,,A,]/[=G,,=G,]/[E,,E,] | [D,,D,] z [D,,D,] z | %24
 G,,[D,G,B,] F,,[D,G,B,] | E,,[D,G,B,] D,,[D,G,B,] | G,,[D,G,B,] [B,,B,][G,,G,] | %27
 [E,,E,][E,G,B,] [E,G,B,] z | G,,[D,G,B,] F,,[D,G,B,] | E,,[D,G,B,] D,,[D,G,B,] | %30
 G,,[D,G,B,] [B,,B,][G,,G,] | [E,,E,][E,G,B,] [E,G,B,] z | z4 | z4 | z4 | z3 [^C,^C] | %36
 [D,D] [D,D]2 [D,D] | [A,,A,]2 [D,,D,]2 | G,,4- | [G,,D,] z [G,,G,] z |: E,^D,/E,/- E,/D,/E, | %41
 [E,,E,] z [E,,E,] z | [E,,E,] z [B,,,B,,] z | z [B,,B,] [G,,G,][E,,E,] | %44
 [G,,G,][D,G,B,] B,,[D,G,B,] | G,,G, C,G, | z .[D,,D,] .[E,,E,].[F,,F,] | %47
 [G,,G,][F,,F,] [E,,E,][D,,D,] | [C,,C,][E,G,C] [C,,C,][E,G,C] | [B,,,B,,]2 [F,,F,]2 |1 %50
 [E,,E,][E,G,] [B,,,B,,][E,G,] | [^D,,^D,]2 [E,,E,]2 | [E,,E,][G,A,] A,,[G,A,] | %53
 E,,[E,G,A,] A,,[E,G,A,] | z [D,,D,] [E,,E,][^E,,^E,] | [F,,F,][=F,,=F,] [E,,E,][D,,D,] :|2 %56
 [E,,E,][E,A,] [E,,E,][E,A,] | [_E,,_E,][G,A,] [E,,E,][G,A,] | [D,,D,][G,,G,] [F,,F,][E,,E,] | %59
 [D,,D,][C,,C,] [B,,,B,,][A,,,A,,] | z =F, E,_E, | D, z [G,,G,] z || G,,[D,G,B,] F,,[D,G,B,] | %63
 E,,[D,G,B,] D,,[D,G,B,] | G,,[D,G,B,] [B,,B,][G,,G,] | [E,,E,][E,G,B,] [E,G,B,] z | %66
 G,,[D,G,B,] F,,[D,G,B,] | E,,[D,G,B,] D,,[D,G,B,] | G,,[D,G,B,] [B,,B,][G,,G,] | %69
 [E,,E,][E,G,B,] [E,G,B,] z | z4 | z4 | z4 | z3 [^C,^C] | [D,D] [D,D]2 [D,D] | [A,,A,]2 [D,,D,]2 | %76
 G,,4- | [G,,D,] z [G,,G,] z ||[K:C] C,[E,G,C] G,,[E,G,C] | C,[E,G,C] G,,[E,G,C] | %80
 ^G,,[E,^G,B,] E,,[E,G,B,] | z [E,,E,] [^F,,^F,][^G,,^G,] | [=F,,=F,][F,A,C] C,[F,A,C] | %83
 F,[A,C] C,[F,A,C] |[K:C] E,G, G,,[E,G,] | z [G,,G,] [E,,E,][C,,C,] | [B,,,B,,][F,G,] G,,[F,G,B,] | %87
 B,,[F,G,] G,,[F,G,] |!<(! [C,,C,]2 [B,,,B,,]2 | [A,,,A,,]!<)!B,, A,,=G,, | %90
 ^F,,[D,^F,C] D,[F,A,C] | A,,[D,^F,C] D,D |[K:treble]!mf! [B,DF][B,DF] [B,DF][B,DF] | %93
 [CDF][CDF] [B,DF][B,DF] |[K:bass] C,[E,G,C] G,,[E,G,C] | C,[E,G,C] G,,[E,G,C] | %96
 ^G,,[E,^G,B,] E,,[E,G,B,] | z [E,,E,] [^F,,^F,][^G,,^G,] | [F,,F,][F,A,C] C,[F,A,C] | %99
 F,[A,C] C,[F,A,C] | E,G, G,,[E,G,] | z [G,,G,] [E,,E,][C,,C,] | [B,,,B,,][F,G,] G,,[F,G,B,] | %103
 B,,[F,G,] G,,[F,G,] | [C,,C,]2 [B,,,B,,]2 | [A,,,A,,]B,, A,,=G,, | ^F,,[D,^F,C] D,[F,A,C] | %107
 G,,[F,G,B,] G,,[F,G,B,] | C,4- | [C,G,] z [C,,C,] z || z4 | z4 | z4 | z4 | B,A,/G,/- G,/A,/B, | %115
 G,A,/B,/- B,/A,/G, | [G,B,][G,,G,] [A,,A,][_B,,_B,] | %117
 [=B,,=B,][_B,,_B,]/[A,,A,]/- [A,,A,]/[_A,,_A,]/[G,,G,] | C,[E,G,C] G,,[E,G,C] | %119
 C,[E,G,C] G,,[E,G,C] | ^G,,[E,^G,B,] E,,[E,G,B,] | z [E,,E,] [^F,,^F,][^G,,^G,] | %122
 [F,,F,][F,A,C] C,[F,A,C] | F,[A,C] C,[F,A,C] | [E,,E,][E,G,C] [C,,C,][E,G,C] | %125
 z [G,,G,] [E,,E,][C,,C,] | [B,,,B,,][F,G,] G,,[F,G,B,] | B,,[F,G,B,] G,,[F,G,B,] | %128
!<(! [C,,C,]2 [B,,,B,,]2 |!ff! [A,,,A,,]!<)![B,,B,] [A,,A,][=G,,G,] | %130
 [^F,,^F,][D,F,C] [D,,D,][F,A,C] | A,,[D,^F,C] [D,,D,][D,F,D] | %132
[K:treble]!f! [B,DF][B,DF] [B,DF][B,DF] | [CDF][CDF] [B,DF][G,,G,] |[K:bass] C,[E,G,C] G,,[E,G,C] | %135
 C,[E,G,C] G,,[E,G,C] | ^G,,[E,^G,D] E,,[E,G,D] | z [E,,E,] [^F,,^F,][^G,,^G,] | %138
 [F,,F,][F,A,C] C,[F,A,C] | F,[A,C] C,[F,A,C] | [E,,E,][E,G,C] [C,,C,][E,G,C] | %141
 z [G,,G,] [E,,E,][C,,C,] | [B,,,B,,][F,G,B,] G,,[F,G,B,] | B,,[F,G,] G,,[F,G,B,] | %144
 [C,,C,]2 [B,,,B,,]2 | [A,,A,][E,,E,] [C,,C,][A,,,A,,] | [D,,D,][^F,A,C] [D,,D,][F,A,C] | %147
 G,,[F,G,B,] G,,[F,G,B,] | C,4- | [C,G,] z [C,,C,] z |] %150
V:3
 x4 | x4 | x4 | x4 | x4 | x4 | z [B,D] [^A,^C][=A,=C] | x4 || x4 | x4 | x4 | x4 | x4 | x4 | x4 | %15
 x4 | [Ace][Ace] [Ed][Ed] | [Ace][Ace] [Ac] z | [Ace][Ace] [Ed][Ed] | [Ace][Ace] [Ac] z | x4 | x4 | %22
 x4 | x4 | x4 | x4 | x4 | x4 | x4 | x4 | x4 | x4 | [Ace][Ace] [Ed][Ed] | [Ace][Ace] [Ac] z | %34
 [Ace][Ace] [Ed][Ed] | [Ace][Ace] [Ac][G_B] | x4 | z [^CG] z [=CF] | z [B,D] [^A,^C][=A,=C] | x4 |: %40
 x4 | x4 | x4 | x4 | [Dd]4 | z [B,D] z [C_E] | x4 | x4 | [Ee]4 | x4 |1 x4 | z [B,^D] z [B,E] | %52
 [^CB]4 | x4 | [=CA]4- | [CA]4 :|2 [CA]4 | x4 | x4 | x4 | B,[B,D] [^A,^C]=C | [G,B,] z z2 || x4 | %63
 x4 | x4 | x4 | x4 | x4 | x4 | x4 | [Ace][Ace] [Ed][Ed] | [Ace][Ace] [Ac] z | [Ace][Ace] [Ed][Ed] | %73
 [Ace][Ace] [Ac][G_B] | x4 | z [^CG] z [=CF] | z [B,D] [^A,^C][=A,=C] | x4 ||[K:C] x4 | x4 | %80
 z ^D/E/- E/D/E | x4 | x4 | x4 |[K:C] z B,/C/- C/B,/C | x4 | x4 | x4 | z [G,C] z [^G,D] | %89
 z!f! ^D/E/- E/D/E | x4 | x4 | z/ A/B/G/ A<B | z/ A/B/G/ A<B | x4 | x4 | z ^D/E/- E/D/E | x4 | x4 | %99
 x4 | z B,/C/- C/B,/C | x4 | x4 | x4 | z [G,C] z [^G,D] | z ^D/E/- E/D/E | x4 | x4 | %108
 z [EG] [^D^F][=D=F] | x4 || [C_B][CB] [CB][CB] | [CA][CA] [CA][CA] | [C_A][CA] [CA][CA] | %113
 [CG][CG] [CG][CG] | F4 | F4 | x4 | x4 | x4 | x4 | z ^d/e/- e/d/e | x4 | x4 | x4 | z B/c/- c/B/c | %125
 x4 | x4 | x4 | z [Gc] z [^Gd] | z ^d/e/- e/d/e | x4 | x4 | G/A/B/G/ A<B | G/A/B/G/ A<B | x4 | x4 | %136
 z ^d/e/- e/d/e | x4 | x4 | x4 | z B/c/- c/B/c | x4 | x4 | x4 | z [Gc] z [^Gd] | z ^d/e/- e/d/e | %146
 x4 | x4 | z [EG] [^D^F][=D=F] | x4 |] %150
V:4
 x4 | x4 | x4 | x4 | x4 | x4 | z =F, E,_E, | x4 || x4 | x4 | x4 | x4 | x4 | x4 | x4 | x4 | x4 | %17
 x4 | x4 | x4 |[K:treble] x4 |[K:bass] x4 | x4 | x4 | x4 | x4 | x4 | x4 | x4 | x4 | x4 | x4 | x4 | %33
 x4 | x4 | x4 | x4 | x4 | z =F, E,_E, | x4 |: E,,2 B,,,2 | x4 | x4 | x4 | x4 | x4 | x4 | x4 | x4 | %49
 x4 |1 x4 | x4 | x4 | x4 | x4 | x4 :|2 x4 | x4 | x4 | x4 | G,,4 | x4 || x4 | x4 | x4 | x4 | x4 | %67
 x4 | x4 | x4 | x4 | x4 | x4 | x4 | x4 | x4 | z =F, E,_E, | x4 ||[K:C] x4 | x4 | x4 | x4 | x4 | %83
 x4 |[K:C] x4 | x4 | x4 | x4 | x4 | x4 | x4 | x4 |[K:treble] x4 | x4 |[K:bass] x4 | x4 | x4 | x4 | %98
 x4 | x4 | x4 | x4 | x4 | x4 | x4 | x4 | x4 | x4 | z _B, A,_A, | x4 || x4 | x4 | x4 | x4 | D4 | %115
 D4 | x4 | x4 | x4 | x4 | x4 | x4 | x4 | x4 | x4 | x4 | x4 | x4 | x4 | x4 | x4 | x4 | %132
[K:treble] x4 | x4 |[K:bass] x4 | x4 | x4 | x4 | x4 | x4 | x4 | x4 | x4 | x4 | x4 | x4 | x4 | x4 | %148
 z _B, A,_A, | x4 |] %150

